X:85
T:The Parks o' Yester
Z:Jack Campin, http://www.campin.me.uk/
S:Northumbrian Minstrelsy
M:9/8
L:1/8
K:G
d| BGG dBB eAA| BGG dBB Tg2d| BGG  dBB eAA|BGG dBB Tg2
d| BGG dBB ecA| BGG dBd Tg2d| BGG  dcB ecA|BGG dBd Tg2:|
d|Tg3  dcB ecA|Tg3  dBd Tg2d|Te>fg dcB edA|BGG dBd Tg2:|

